X:14879
T:Sauteuse Country Dance. BF13.064
M:6/8
L:1/8
Q:120
S:J.Lishman(?)MS,c1825,Lakes,Browne Coll.
R:Misc.
O:England
A:Lakes
Z:vmp.Cherri Graebe.
K:A Major
e|cega2c|dfdB2d|cecA2c|B2GE2d|!cega2c|dfdB2d|cecB2G|A3A2|!
|e|cega2c|dfab2d|cega2c|f2dB2d|!cega2c|dfab2d|dcB ceg|a2AA2|!
|E |EDCA,2C|A2c ecA|BAGE2c|d2e fdB|!EDCA,2C|D2EF2d|cecB2G|A3A2|]


